src/images/logo-cnc-invert.svg

<svg fill="none" height="50" viewBox="0 0 172 50" width="172" xmlns="http://www.w3.org/2000/svg"><path d="m158.035 0c3.127 1.34507 5.948 3.22372 8.346 5.48033l-10.086 9.44887c-2.621-2.4345-6.242-3.9574-10.215-3.9574-8.064 0-14.6 6.1806-14.6 13.7953 0 7.6146 6.536 13.7731 14.6 13.7731 3.973 0 7.57-1.5007 10.192-3.9463l10.05 9.5044c-2.398 2.2344-5.195 4.0797-8.287 5.4359h13.965v-49.5342zm-40.778 24.7671c0-11.0051 6.841-20.47621 16.798-24.7671h-21.888v49.5231h21.935c-9.922-4.302-16.845-13.7731-16.845-24.756zm-42.5301 24.756h23.757l-23.757-26.8681zm22.5109-49.5231h-23.8745l23.8745 27.0126zm-43.0235 5.48033-10.0623 9.44887c-2.6566-2.4345-6.2537-3.9574-10.2504-3.9574-8.064 0-14.588 6.1806-14.588 13.7953 0 7.6146 6.5123 13.7731 14.588 13.7731 3.985 0 7.5702-1.5007 10.2269-3.9463l10.0153 9.5044c-2.3745 2.2344-5.184 4.0797-8.2756 5.4359h13.9415v-49.5342h-13.9297c3.1268 1.34507 5.9481 3.22372 8.3343 5.48033zm-49.1126 19.28677c0-11.0051 6.8414-20.47621 16.7745-24.7671h-21.8762v49.5231h21.9349c-9.933-4.302-16.8332-13.7731-16.8332-24.756z" fill="#fff"/></svg>

<svg width="172" height="50" viewBox="0 0 172 50" fill="none" xmlns="http://www.w3.org/2000/svg">
<path d="M158.035 0C161.162 1.34507 163.983 3.22372 166.381 5.48033L156.295 14.9292C153.674 12.4947 150.053 10.9718 146.08 10.9718C138.016 10.9718 131.48 17.1524 131.48 24.7671C131.48 32.3817 138.016 38.5402 146.08 38.5402C150.053 38.5402 153.65 37.0395 156.272 34.5939L166.322 44.0983C163.924 46.3327 161.127 48.178 158.035 49.5342H172V0H158.035ZM117.257 24.7671C117.257 13.762 124.098 4.29089 134.055 0H112.167V49.5231H134.102C124.18 45.2211 117.257 35.75 117.257 24.7671ZM74.7269 49.5231H98.4839L74.7269 22.655V49.5231ZM97.2378 0H73.3633L97.2378 27.0126V0ZM54.2143 5.48033L44.152 14.9292C41.4954 12.4947 37.8983 10.9718 33.9016 10.9718C25.8376 10.9718 19.3136 17.1524 19.3136 24.7671C19.3136 32.3817 25.8259 38.5402 33.9016 38.5402C37.8866 38.5402 41.4718 37.0395 44.1285 34.5939L54.1438 44.0983C51.7693 46.3327 48.9598 48.178 45.8682 49.5342H59.8097V0H45.88C49.0068 1.34507 51.8281 3.22372 54.2143 5.48033ZM5.1017 24.7671C5.1017 13.762 11.9431 4.29089 21.8762 0H0V49.5231H21.9349C12.0019 45.2211 5.1017 35.75 5.1017 24.7671Z" fill="white"/>
</svg>
